X: 11263
Q: "Allegro maestoso."
M: C
L: 1/8
K: F
c2 |\
f2f2 (f>e)(f>g) | f2c2 A2(c>A) |\
(f>e)(d>f) e2c2 | (f>e)(d>f) e3f |\
g2e2 (c=B)(cd) | (cede) (c=B)(AG) |
(AG)(FE) D2=B2 | c4 z2c>d |\
e2(e>f) g2(b>g) | e2(g>e) c2^c2 |\
d2(F>G) A3A | D4 z2c2 |\
f3f f2 [" " z//f//e//d//   c//B//A//G// "^Sym."| F2F>F F2 |] f2 |
g3g g2 [" " z//c'//=b//a// g//f//e//d// "^Sym."| c2c>c c2 |] c>B |\
f3f g3g | a2a2 b2ag |\
f2f2 (g>f)(g>a) | f4 z2 |]


